X:1
T:Title
%%score ( 1 2 ) { 3 | 4 }
L:1/8
Q:1/4=108
M:4/4
K:D
V:1 treble nm="Church Organ, Staff 1"
V:2 treble 
V:3 bass nm="Church Organ, Pearsall"
V:4 bass 
V:1
 [FA]2 [Dd]2 [Gc]2 [Fd]2 | F2 [GB]4 [FA]2 | [FA]2 [EG]2 [DF]2 [DE]2 | [CE]2 [DF]6 | %4
w: By~R.~L.~Pearsall * * *||||
 [A,D]2 [DF]2 [DG]2 [EA]2 | [FA]2 [GB]4 [FA]2 | [FA]2 [GB]2 [Gc]2 [Fd]2 | .e2 z2 z4 | %8
w: ||||
 [Ad]2 [GB]2 [FA]2 [EG]2 | [^DF]2 [EG]4 E2 | z4 A2 z2 | E2 [DA]6 | .B2 z2 z4 | F2 [GB]4 [FA]2 | %14
w: ||||||
 [DA]2 [DG]2 [DF]2 [DE]2 | [CE]2 D6 |] %16
w: ||
V:2
 x8 | x8 | x8 | x8 | x8 | x8 | x8 | ^G-[Gd] [Ac]6 | x8 | x8 | [FB]2 [EA]2 B,C [DF]2 | x8 | %12
 G-[Gc] [Fd]2 [Gc]2 [Fd]2 | x8 | x8 | x8 |] %16
V:3
 D2 A,2 G,2 B,2 | C2[K:treble] D4 D2 | DC B,2[K:bass] A,2 B,2 | A,2 A,6 | %4
 A,2 A,2 B,2[K:treble] C2 | D2 D4 D2 | D2 D2 E2 D2 | D2 C6 | D2 D2 D2[K:bass] B,2 | B,2 B,4 B,2 | %10
 F,G, A,2 B,G, A,2 | B,2 A,6 | G,2 A,2[K:treble] E2 D2 | C2 D4 D2 | D2[K:bass] B,2 A,2 B,2 | %15
 A,G, F,6 |] %16
V:4
 D,2 F,2 E,2 z2 | A,2 G,4 D,2 | D,2 E,2 F,2 G,2 | z2 D,6 | F,2 D,2 B,,2 A,,2 | D,2 G,,4 D,2 | %6
 D,2 G,2 E,2 B,2 | B,2 A,6 | F,2 G,2 D,2 E,2 | B,,2 E,4 G,2 | D,2 C,2 E,2 D,2 | G,2 F,6 | %12
 E,2 D,2 E,2 B,2 | A,2 G,4 D,2 | F,2 G,2 D,2 G,,2 | A,,2 D,6 |] %16

